docs/.gitbook/assets/icon-wallet-16@light.svg

<svg width="32" height="32" viewBox="0 0 16 16" fill="none" xmlns="http://www.w3.org/2000/svg">
<rect x="0" y="0" width="16" height="16" fill="#fff"/>
<path fill-rule="evenodd" clip-rule="evenodd" d="M9.98927 1.21191C11.6038 1.05815 13 2.32774 13 3.94952V5.10351C14.1543 5.42998 15 6.49122 15 7.75V12.25C15 13.7688 13.7688 15 12.25 15H3.75C2.23122 15 1 13.7688 1 12.25V4.25C1 4.24136 1.00015 4.23275 1.00044 4.22418C1.00015 4.20907 1 4.19392 1 4.17873C1 2.98198 1.90983 1.98138 3.10119 1.86792L9.98927 1.21191ZM2.5 6.35053V12.25C2.5 12.9404 3.05964 13.5 3.75 13.5H12.25C12.9404 13.5 13.5 12.9404 13.5 12.25V7.75C13.5 7.05964 12.9404 6.5 12.25 6.5H3.32127C3.03212 6.5 2.75531 6.44713 2.5 6.35053ZM11.5 5V3.94952C11.5 3.21235 10.8653 2.63526 10.1315 2.70515L3.2434 3.36116C2.8219 3.40131 2.5 3.75532 2.5 4.17873C2.5 4.6323 2.86769 5 3.32127 5H11.5ZM10 9.75C10 9.33578 10.3358 9 10.75 9H11.25C11.6642 9 12 9.33578 12 9.75C12 10.1642 11.6642 10.5 11.25 10.5H10.75C10.3358 10.5 10 10.1642 10 9.75Z" fill="#000"/>
</svg>

<svg xmlns="http://www.w3.org/2000/svg" width="32" height="32" fill="none" viewBox="0 0 16 16"><path fill="#fff" d="M0 0h16v16H0z"/><path fill="#000" fill-rule="evenodd" d="M9.99 1.212A2.75 2.75 0 0 1 13 3.95v1.154a2.75 2.75 0 0 1 2 2.646v4.5A2.75 2.75 0 0 1 12.25 15h-8.5A2.75 2.75 0 0 1 1 12.25V4.179c0-1.197.91-2.198 2.101-2.311zM2.5 6.35v5.899c0 .69.56 1.25 1.25 1.25h8.5c.69 0 1.25-.56 1.25-1.25v-4.5c0-.69-.56-1.25-1.25-1.25H3.321c-.289 0-.566-.053-.821-.15M11.5 5V3.95a1.25 1.25 0 0 0-1.368-1.245l-6.889.656A.821.821 0 0 0 3.321 5zM10 9.75a.75.75 0 0 1 .75-.75h.5a.75.75 0 0 1 0 1.5h-.5a.75.75 0 0 1-.75-.75" clip-rule="evenodd"/></svg>
